X: 36
T: John O'Dwyer of the Glen
M: 3/4
L: 1/8
B: "O'Neill's 36"
N: "Slow with expression" "setting 2" "collected by F. O'Neill"
Z: "Transcribed by Norbert Paap, norbertp@bdu.uva.nl"
K:G
d/2-c/2 \
| B>-A B>-d c-<A | {F}G>F GA B-<G \
| B-G A-G F-D | C>-D G>G G :|
D \
| GG (G/2A/2B/2c/2) dd | e>f e>d ed \
| cd (d/2c/2B/2A/2) (B/2A/2G/2F/2) | {A}G>-F DD D d/2-c/2 |
B>A Bd c-<A | {F}G>F GA B-<G \
| G>-G A>-G F-<D | CD G>G G ||


